X: 1726
T: Billy Taylor's Fancy   #3
R: hornpipe, reel
%S: s:2 b:9(5+4)
B: O'Neill's 1850 #1726
O: Gillan
Z: A.LEE WORMAN
Z: Bob Safranek, rjs@gsp.org
M: C|
L: 1/8
N: Compacted by using labels and play order [JC]
P: Play (A1A2)x2+(BA2)x2
K: G
"^A"[|] D>F |: G>AB>c d>Be>c | d>gf>g b>gd>B | (3cBA e>c (3BAG [1 d>B | (3ABG (3FGE D>c B>A :|[2 (3AGF | G>BA>F HG2 |]
"^B"[| (f>g) | a>g (3fge d>ef>g | (3agf (3gfe d>ef>g | (3agf (3bag (3agf (3gfe | d>gg>c (3BAG (3AGF|]
